X: 12414
T: Far Away From Home
R: barndance
M: 4/4
K: Gmajor
|:GE DE G2 GA|B2 BA Bc d2|GE DE G2 BG|AG BG AG E2|
GE DE G2 GA|B2 BA Bc d2|edef gedc|1 BG AF G3 D:|2 BG AF G3 B||
|:g2 ge f2 fd|e2 ef ed B2|ge dB G2 BG|AG BG AG E2|
GE DE G2 GA|B2 BA Bc d2|edef gedc|1 BG AF G3 B:|2 BG AF G4||

